X: 18
T: Missa Mi mi (Missa Petite camusette) / Gloria
N: Derived from Ort1005b-Missa_Mi_mi-Gloria-Missa_Petite_camusette.krn
C: Marbrianus de Orto
%%abc-version 2.0
%%abcx-abcm2ps-target-version 5.9.1 (29 Sep 2008)
%%abc-creator hum2abc beta
%%abcx-conversion-date 2019/02/17 07:28:37
%%abc-edited-by Jesse Rodin
%%abc-edited-by Jesse Rodin 8/9/2013
%%abcx-initial-encoding-date 2013/08/09/
%%humdrum-veritas 2211899408
%%humdrum-veritas-data 4117427221
%%linebreak <none>
%%barnumbers 0
L: 1/4
M: 4/2
Q: 1/2=120
%%staves [1 2 3 4]
V: 1 clef=treble
V: 2 clef=treble-8
V: 3 clef=treble-8
V: 4 clef=bass
K: C
[V:1] z8 | 
[V:2] E6F2 | 
[V:3] z8 | 
[V:4] z8 | 
[V:1] E6F2 | 
[V:2] G4A4 | 
[V:3] z8 | 
[V:4] z4A,,4 | 
[V:1] G4A4 | 
[V:2] E4c4 | 
[V:3] z8 | 
[V:4] E,4F,4 | 
[V:1] A4G4 | 
[V:2] d4e4 | 
[V:3] z8 | 
[V:4] F,4E,4 | 
[V:1] A2c4B2 | 
[V:2] f4e2e2- | 
[V:3] z8 | 
[V:4] D,2A,3G,E,2 | 
[V:1] A4z2A2 | 
[V:2] e2d2e2c2 | 
[V:3] z8 | 
[V:4] F,4E,2F,2 | 
[V:1] A4G2A2- | 
[V:2] f4e2c2- | 
[V:3] z8 | 
[V:4] D,4E,2F,2- | 
[V:1] AGE2F4 | 
[V:2] cBG2A4 | 
[V:3] z8 | 
[V:4] F,2G,2D,4 | 
[V:1] E2E4D2 | 
[V:2] E2G2F4 | 
[V:3] z8 | 
[V:4] z2C,2D,4 | 
[V:1] E4z4 | 
[V:2] E4c4 | 
[V:3] G4A4 | 
[V:4] C,4A,,4 | 
[V:1] z4G4 | 
[V:2] d4c4 | 
[V:3] G4E4 | 
[V:4] z4C,2C,2 | 
[V:1] A4G4 | 
[V:2] A2c4B2 | 
[V:3] z8 | 
[V:4] F,4E,4 | 
[V:1] E3CD4 | 
[V:2] c4z4 | 
[V:3] G4G2G2 | 
[V:4] C,4B,,4 | 
[V:1] C2c3AA2- | 
[V:2] e2e2c2d2 | 
[V:3] A2A4GF | 
[V:4] A,,4z4 | 
[V:1] A2^G2A3=G | 
[V:2] B4A4 | 
[V:3] E4z4 | 
[V:4] z4A,,4 | 
[V:1] E2G2F4 | 
[V:2] G3ABAd2 | 
[V:3] z8 | 
[V:4] C,4D,4 | 
[V:1] E4z2G2- | 
[V:2] B4c4 | 
[V:3] z2G2G4 | 
[V:4] E,8 | 
[V:1] G2^F2G4 | 
[V:2] d4z2B2 | 
[V:3] A4G4 | 
[V:4] D,4G,,4 | 
[V:1] z8 | 
[V:2] c2A2G2c2- | 
[V:3] E4z4 | 
[V:4] A,,2C,3B,,E,2- | 
[V:1] z4z2D2 | 
[V:2] c2A4^G2 | 
[V:3] z8 | 
[V:4] E,2C,2B,,4 | 
[V:1] E2F2G4 | 
[V:2] A4B2c2- | 
[V:3] z4z2E2 | 
[V:4] A,,4z4 | 
[V:1] A2G2c3B/A/ | 
[V:2] c2B2e3c | 
[V:3] F2G2A4 | 
[V:4] z8 | 
[V:1] B2A4^G2 | 
[V:2] d2A2B4 | 
[V:3] G2F2E4 | 
[V:4] z8 | 
[V:1] A4z4 | 
[V:2] A4E3F | 
[V:3] z8 | 
[V:4] A,,3B,,C,4 | 
[V:1] E3FG2A2 | 
[V:2] G2A2z2A2 | 
[V:3] z8 | 
[V:4] C,3D,E,2F,2 | 
[V:1] z2A2G2A2 | 
[V:2] G2A2c3B | 
[V:3] z8 | 
[V:4] E,2F,2C,2F,2- | 
[V:1] c3BA4 | 
[V:2] A2e4d2 | 
[V:3] z8 | 
[V:4] F,2E,2F,4 | 
[V:1] G4z4 | 
[V:2] e4z4 | 
[V:3] z2E3FG2 | 
[V:4] E,4C,3B,, | 
[V:1] z8 | 
[V:2] z8 | 
[V:3] A2A2G2A2 | 
[V:4] A,,B,,C,D,E,2F,2- | 
[V:1] z8 | 
[V:2] z8 | 
[V:3] c3BA4 | 
[V:4] F,E,C,2D,2B,,2- | 
[V:1] z4A2A2 | 
[V:2] z4c2c2 | 
[V:3] G2A2A2A2 | 
[V:4] B,,2A,,2F,2F,2 | 
[V:1] c2c2B2B2 | 
[V:2] c2e2e2e2 | 
[V:3] A2E2G2G2 | 
[V:4] F,2C,2E,2E,2 | 
[V:1] A2E2G3F | 
[V:2] e2c2B2c2 | 
[V:3] A3GE2G2- | 
[V:4] A,,4z2C,2 | 
[V:1] D2E4D2 | 
[V:2] d2c2A4 | 
[V:3] G2A2F4 | 
[V:4] B,,2A,,2D,4 | 
[V:1] E6DC | 
[V:2] B2c2E3F | 
[V:3] E4z2C2 | 
[V:4] z2A,,2C,4 | 
[V:1] !fermata!B,8 ||  
[V:2] !fermata!G8 ||  
[V:3] !fermata!D8 ||  
[V:4] !fermata!G,,8 ||  
[V:1]  [K:C] [K:clef=treble][M:4/2]z2B4B2 | 
[V:2]  [K:C] [K:clef=treble-8][M:4/2]d4d2d2- | 
[V:3]  [K:C] [K:clef=treble-8][M:4/2]z8 | 
[V:4]  [K:C] [K:clef=bass][M:4/2]z8 | 
[V:1] B2c4BA | 
[V:2] d2e4dc | 
[V:3] z8 | 
[V:4] z8 | 
[V:1] G4z4 | 
[V:2] c4z4 | 
[V:3] z2G4G2 | 
[V:4] E,4E,2E,2- | 
[V:1] z8 | 
[V:2] z8 | 
[V:3] G2A4GF | 
[V:4] E,2F,4E,D, | 
[V:1] G4A2G2 | 
[V:2] z2c3de2- | 
[V:3] E4z4 | 
[V:4] C,4z4 | 
[V:1] F4E4 | 
[V:2] e2d2e4 | 
[V:3] z4G2A2- | 
[V:4] z4C,4 | 
[V:1] z8 | 
[V:2] z8 | 
[V:3] AGE2F2E2 | 
[V:4] C,4D,2C,2 | 
[V:1] c4c3B | 
[V:2] e4e3d/c/ | 
[V:3] z8 | 
[V:4] A,,4A,3G, | 
[V:1] A2G2A2GF | 
[V:2] d2e2f2d2 | 
[V:3] z2c4B2 | 
[V:4] F,2E,2D,4 | 
[V:1] E4z4 | 
[V:2] G2zGcBcd | 
[V:3] c3BAGAF | 
[V:4] C,4z4 | 
[V:1] B4c2B2- | 
[V:2] e4g4 | 
[V:3] E4e4 | 
[V:4] G,4C,2E,2 | 
[V:1] BAA4^G2 | 
[V:2] f4e4 | 
[V:3] c2d2B4 | 
[V:4] F,2D,2E,4 | 
[V:1] A8 ||  
[V:2] e8 ||  
[V:3] A8 ||  
[V:4] A,,8 ||  
[V:1]  [K:C] [K:clef=treble][M:4/2]z8 | 
[V:2]  [K:C] [K:clef=treble-8][M:4/2]z8 | 
[V:3]  [K:C] [K:clef=treble-8][M:4/2]z8 | 
[V:4]  [K:C] [K:clef=bass][M:4/2]E,6F,2 | 
[V:1] E6F2 | 
[V:2] z8 | 
[V:3] z8 | 
[V:4] G,4A,4 | 
[V:1] G2A4GF | 
[V:2] z8 | 
[V:3] z8 | 
[V:4] G,2F,4E,D, | 
[V:1] E4z4 | 
[V:2] G4A2c2 | 
[V:3] z4E4 | 
[V:4] C,8 | 
[V:1] z8 | 
[V:2] B3AB4 | 
[V:3] G4G4 | 
[V:4] z8 | 
[V:1] C3DEFE2- | 
[V:2] A4c4- | 
[V:3] A8 | 
[V:4] z8 | 
[V:1] E2DCD4 | 
[V:2] c2BAB4 | 
[V:3] G8 | 
[V:4] z8 | 
[V:1] z2C4A,2- | 
[V:2] c2e4dc | 
[V:3] E4z4 | 
[V:4] C,6D,2 | 
[V:1] A,2^G,2A,4 | 
[V:2] B4A4 | 
[V:3] z8 | 
[V:4] E,4F,4 | 
[V:1] z8 | 
[V:2] z4D4 | 
[V:3] B8 | 
[V:4] E,2D,4C,B,, | 
[V:1] z8 | 
[V:2] E4F4 | 
[V:3] c8 | 
[V:4] A,,8 | 
[V:1] D6E2 | 
[V:2] G4z4 | 
[V:3] B4G4 | 
[V:4] G,,8 | 
[V:1] F4G4 | 
[V:2] D4E3F | 
[V:3] z8 | 
[V:4] z8 | 
[V:1] D2F2E2D2- | 
[V:2] G2D2G4- | 
[V:3] z8 | 
[V:4] z8 | 
[V:1] D2CB,A,4 | 
[V:2] G2^FE^F4 | 
[V:3] z8 | 
[V:4] z8 | 
[V:1] G,A,B,CD2E2- | 
[V:2] G4z2C2- | 
[V:3] z8 | 
[V:4] z4G,4- | 
[V:1] E2DCD4 | 
[V:2] C2C2G4 | 
[V:3] z8 | 
[V:4] G,2A,2B,4 | 
[V:1] G3AB2c2- | 
[V:2] z2c2d2e2- | 
[V:3] z8 | 
[V:4] C4B,2A,2- | 
[V:1] c2A4G2 | 
[V:2] e2A2B4 | 
[V:3] z8 | 
[V:4] A,2G,F,E,4 | 
[V:1] A2GFE4 | 
[V:2] A8 | 
[V:3] c8- | 
[V:4] z4z2A,2- | 
[V:1] z8 | 
[V:2] z8 | 
[V:3] c4c4 | 
[V:4] A,2G,F,E,4 | 
[V:1] z8 | 
[V:2] z2D4G2- | 
[V:3] d8 | 
[V:4] z4B,,4 | 
[V:1] z8 | 
[V:2] G2FEF2ED | 
[V:3] c4A4 | 
[V:4] C,4D,4 | 
[V:1] G4F2E2- | 
[V:2] C4z4 | 
[V:3] z8 | 
[V:4] E,4D,2C,2- | 
[V:1] E2DCB,4 | 
[V:2] c4d4 | 
[V:3] z8 | 
[V:4] C,2B,,A,,G,,4 | 
[V:1] CDEFE2A2- | 
[V:2] e2c3BAG | 
[V:3] A8 | 
[V:4] z8 | 
[V:1] A2GFE4 | 
[V:2] F2G2A4 | 
[V:3] c8 | 
[V:4] z8 | 
[V:1] F4D4 | 
[V:2] D4z4 | 
[V:3] d8 | 
[V:4] z4D,4 | 
[V:1] z4z2G2- | 
[V:2] z2d4c2 | 
[V:3] z8 | 
[V:4] C,2D,2E,4 | 
[V:1] G2F2G4 | 
[V:2] d4e4 | 
[V:3] z8 | 
[V:4] D,4z4 | 
[V:1] A4G4 | 
[V:2] d4z4 | 
[V:3] z2d4c2 | 
[V:4] z4E,4 | 
[V:1] z8 | 
[V:2] z4A4 | 
[V:3] d4e4 | 
[V:4] D,2D,4C,2 | 
[V:1] z2D2C4- | 
[V:2] A2G2A2F2 | 
[V:3] d4z4 | 
[V:4] D,2B,,2A,,4 | 
[V:1] C2C2D2C2 | 
[V:2] E2e2f2e2- | 
[V:3] z8 | 
[V:4] A,,4z2A,2- | 
[V:1] A,2A4G2 | 
[V:2] e2A2B4 | 
[V:3] z8 | 
[V:4] A,2G,F,E,4 | 
[V:1] A2GFE4 | 
[V:2] A4z4 | 
[V:3] z2d2c2c2 | 
[V:4] F,2D,2A,4 | 
[V:1] z4z2c2- | 
[V:2] z8 | 
[V:3] d2B2A4 | 
[V:4] z2G,4F,2 | 
[V:1] c2B2c2BA | 
[V:2] d4c2e2- | 
[V:3] z8 | 
[V:4] G,4z2C2- | 
[V:1] G2A4G2 | 
[V:2] e2c2d2B2 | 
[V:3] z8 | 
[V:4] C2A,2B,2E,2 | 
[V:1] A2GFE2F2 | 
[V:2] A3Bc2F2 | 
[V:3] z2A2A4 | 
[V:4] F,2D,2C,2D,2 | 
[V:1] GFEDC3D | 
[V:2] z2D2E4 | 
[V:3] G4A4 | 
[V:4] B,,4A,,4 | 
[V:1] EDG3FDE | 
[V:2] z2e3dBc | 
[V:3] G4E2G2 | 
[V:4] C,4z4 | 
[V:1] F2E4D2 | 
[V:2] d2B4A2 | 
[V:3] D2E2F4 | 
[V:4] z4D,4 | 
[V:1] E8- | 
[V:2] B8- | 
[V:3] E8- | 
[V:4] G,8 | 
[V:1] E8 ||  
[V:2] B8 ||  
[V:3] E8 ||  
[V:4] E,8 ||  
[V:1]  [K:C] [K:clef=treble][M:4/2]E8 | 
[V:2]  [K:C] [K:clef=treble-8][M:4/2]z8 | 
[V:3]  [K:C] [K:clef=treble-8][M:4/2]z8 | 
[V:4]  [K:C] [K:clef=bass][M:4/2]A,,8 | 
[V:1] G8 | 
[V:2] B8 | 
[V:3] z8 | 
[V:4] E,8 | 
[V:1] A8 | 
[V:2] d8 | 
[V:3] A8 | 
[V:4] D,6C,2 | 
[V:1] z8 | 
[V:2] e6dc | 
[V:3] c8 | 
[V:4] A,,4A,4- | 
[V:1] z8 | 
[V:2] B8 | 
[V:3] d4d4 | 
[V:4] A,2^G,^F,G,4 | 
[V:1] A4G4 | 
[V:2] e4d4 | 
[V:3] c4d4 | 
[V:4] A,4B,4 | 
[V:1] c2B2A2G2 | 
[V:2] c6B2 | 
[V:3] e8 | 
[V:4] A,8 | 
[V:1] F8 | 
[V:2] A8 | 
[V:3] d8 | 
[V:4] D,8 | 
[V:1] z4_B4- | 
[V:2] z4G4- | 
[V:3] z4d4- | 
[V:4] z4G,,4- | 
[V:1] B4_B4 | 
[V:2] G4G4 | 
[V:3] d4d4 | 
[V:4] G,,4G,,4 | 
[V:1] A8 | 
[V:2] ^F8 | 
[V:3] d8 | 
[V:4] D,8 | 
[V:1] z4A,4 | 
[V:2] z4^F4 | 
[V:3] z4D4 | 
[V:4] z4D,4 | 
[V:1] B,4B,4 | 
[V:2] G4G4 | 
[V:3] D4D4 | 
[V:4] G,,4G,,4 | 
[V:1] C4C4 | 
[V:2] G4A4 | 
[V:3] E4F4 | 
[V:4] C,4A,,4 | 
[V:1] B,6A,G, | 
[V:2] D4E4 | 
[V:3] G8 | 
[V:4] G,,4z2G,,2 | 
[V:1] C2B,2E4- | 
[V:2] C2G4c2 | 
[V:3] E8 | 
[V:4] A,,2G,,2C,4 | 
[V:1] E2DCD4 | 
[V:2] A2A4A2- | 
[V:3] F8 | 
[V:4] D,8 | 
[V:1] E8 | 
[V:2] A2c3BA2 | 
[V:3] E8 | 
[V:4] A,,4z2A,,2 | 
[V:1] z8 | 
[V:2] G4c4 | 
[V:3] E3FG2A2- | 
[V:4] C,3D,E,2A,,2 | 
[V:1] z8 | 
[V:2] B4A2c2- | 
[V:3] A2^G2A4 | 
[V:4] E,4z2A,,2 | 
[V:1] E3FG2A2- | 
[V:2] cBG4c2 | 
[V:3] z8 | 
[V:4] C,3D,E,2A,,2 | 
[V:1] A2^G2A4 | 
[V:2] B4A3G | 
[V:3] z4z2A2 | 
[V:4] E,4z2A,,2 | 
[V:1] z8 | 
[V:2] E2F2E2A2 | 
[V:3] A4G2c2- | 
[V:4] C,3D,E,2A,,2 | 
[V:1] G4A2c2- | 
[V:2] E2G2F2A2- | 
[V:3] c2B2c3d | 
[V:4] E,4z2A,,2 | 
[V:1] c2BAG2A2- | 
[V:2] AGE4e2- | 
[V:3] e3dB2c2 | 
[V:4] C,3D,E,2A,,2 | 
[V:1] A2^G2A4 | 
[V:2] e2e2c3d | 
[V:3] B4z2A2 | 
[V:4] E,4z2A,,2 | 
[V:1] z8 | 
[V:2] e2A2c4 | 
[V:3] G2A2G2A2- | 
[V:4] C,3D,E,2A,,2 | 
[V:1] z4z2A2 | 
[V:2] B4A2e2- | 
[V:3] A2G2A3G | 
[V:4] E,4z2A,,2 | 
[V:1] G2A2G2A2- | 
[V:2] edc2B2A2 | 
[V:3] E4z4 | 
[V:4] C,3D,E,2A,,2 | 
[V:1] A2G2A3G | 
[V:2] B4A2c2- | 
[V:3] z8 | 
[V:4] E,4z2A,,2 | 
[V:1] E4z4 | 
[V:2] cBG4c2 | 
[V:3] z2E2G2A2- | 
[V:4] C,3D,E,2A,,2 | 
[V:1] z8 | 
[V:2] B4A4 | 
[V:3] A2G2A2A2 | 
[V:4] E,4z2A,,2 | 
[V:1] E4G4 | 
[V:2] G2c4B2 | 
[V:3] G2E2z4 | 
[V:4] C,3D,E,4 | 
[V:1] A2A2G2A2- | 
[V:2] z2c4f2- | 
[V:3] z8 | 
[V:4] A,,4z4 | 
[V:1] AGFEF4 | 
[V:2] fedcd4 | 
[V:3] z8 | 
[V:4] z8 | 
[V:1] E4z4 | 
[V:2] e4z4 | 
[V:3] G4A2G2 | 
[V:4] C,3B,,C,D,E,2- | 
[V:1] z4G4 | 
[V:2] z4z2c2- | 
[V:3] A2F2E4 | 
[V:4] E,2D,2E,4 | 
[V:1] A2G2A2F2 | 
[V:2] cde2c2d2- | 
[V:3] z8 | 
[V:4] z8 | 
[V:1] E4z4 | 
[V:2] d2^c2d4 | 
[V:3] z4B4 | 
[V:4] z4G,4 | 
[V:1] z8 | 
[V:2] z8 | 
[V:3] B8 | 
[V:4] G,3F,E,2D,2 | 
[V:1] G4G4 | 
[V:2] e3dc2B2 | 
[V:3] c4z4 | 
[V:4] C,4z4 | 
[V:1] A3GF2E2 | 
[V:2] c4A4 | 
[V:3] z8 | 
[V:4] z8 | 
[V:1] D4G3F | 
[V:2] B4d4 | 
[V:3] z4G4 | 
[V:4] G,,8 | 
[V:1] E2C2D4 | 
[V:2] G4D4 | 
[V:3] G4G4 | 
[V:4] C,4B,,4 | 
[V:1] !fermata!C8 | 
[V:2] !fermata!E8 | 
[V:3] !fermata!A8 | 
[V:4] A,,8 | 
[V:1] !fermata!E8 | 
[V:2] !fermata!c8 | 
[V:3] !fermata!A8 | 
[V:4] !fermata!A,,8 | 
[V:1] !fermata!F8 | 
[V:2] !fermata!d8 | 
[V:3] !fermata!A8 | 
[V:4] !fermata!D,8 | 
[V:1] !fermata!E8 | 
[V:2] !fermata!c8 | 
[V:3] !fermata!A8 | 
[V:4] !fermata!A,,8 | 
[V:1] E8 ||  
[V:2] B8 ||  
[V:3] G8 ||  
[V:4] E,8 ||  
[V:1]  [K:C] [K:clef=treble][M:3/1]E8E4 | 
[V:2]  [K:C] [K:clef=treble-8][M:3/1]E4G6E2 | 
[V:3]  [K:C] [K:clef=treble-8][M:3/1]z12 | 
[V:4]  [K:C] [K:clef=bass][M:3/1]C,8C,4 | 
[V:1] E4D8 | 
[V:2] A6^G^F^G4 | 
[V:3] z12 | 
[V:4] A,,4B,,8 | 
[V:1] C6D2E4 | 
[V:2] A8G4 | 
[V:3] E8G4 | 
[V:4] A,,4A,,4z4 | 
[V:1] F4G6F2 | 
[V:2] F4E8 | 
[V:3] A4B8 | 
[V:4] z12 | 
[V:1] A4c8 | 
[V:2] e8e4 | 
[V:3] A4A4z4 | 
[V:4] z4z4A,4 | 
[V:1] A4B8 | 
[V:2] e4e8 | 
[V:3] z12 | 
[V:4] A,4G,8 | 
[V:1] A4z4z4 | 
[V:2] f8F4 | 
[V:3] c8c4 | 
[V:4] F,6G,2A,4 | 
[V:1] z12 | 
[V:2] A6GFG4 | 
[V:3] c4c6B2 | 
[V:4] F,4E,8 | 
[V:1] F8F4 | 
[V:2] A12 | 
[V:3] d12 | 
[V:4] D,4z4z4 | 
[V:1] F4F6E2 | 
[V:2] D12 | 
[V:3] z12 | 
[V:4] D6C2A,4 | 
[V:1] G8F4 | 
[V:2] B4B4B4 | 
[V:3] z12 | 
[V:4] G,6F,2D,4 | 
[V:1] E4D8 | 
[V:2] c4d4B4 | 
[V:3] G4G4G4 | 
[V:4] C,4B,,8 | 
[V:1] C6D2E4 | 
[V:2] e8z4 | 
[V:3] A12 | 
[V:4] A,,6B,,2C,4 | 
[V:1] C4B,8 | 
[V:2] z12 | 
[V:3] A8^G4 | 
[V:4] A,,4E,8 | 
[V:1] A,4z4z4 | 
[V:2] c6d2e4 | 
[V:3] A8G4 | 
[V:4] A,,6B,,2C,4 | 
[V:1] A8A4 | 
[V:2] A4f6e2 | 
[V:3] F4D8 | 
[V:4] D,4z4z4 | 
[V:1] G4c6BA | 
[V:2] e8d4 | 
[V:3] E4F8 | 
[V:4] z12 | 
[V:1] G4z4z4 | 
[V:2] e6d2c4 | 
[V:3] E8z4 | 
[V:4] z4E,4F,4 | 
[V:1] z12 | 
[V:2] B6G2A2B2 | 
[V:3] E8F4 | 
[V:4] G,6F,2D,4 | 
[V:1] E8F4 | 
[V:2] c4z4z4 | 
[V:3] G6F2D4 | 
[V:4] C,8D,4 | 
[V:1] G8C4 | 
[V:2] G8A4- | 
[V:3] C4E4F4 | 
[V:4] E,4z4z4 | 
[V:1] F4E4A4- | 
[V:2] A4c8 | 
[V:3] D4A6B2 | 
[V:4] z12 | 
[V:1] A4G4c4 | 
[V:2] e8c4 | 
[V:3] c4e8 | 
[V:4] A,4C8 | 
[V:1] B4d8 | 
[V:2] g8z4 | 
[V:3] d4B8 | 
[V:4] G,4G,4D,4 | 
[V:1] c4B6A2 | 
[V:2] f4d4d2f2- | 
[V:3] A4d8 | 
[V:4] F,4G,6D,2 | 
[V:1] A6G2F2E2 | 
[V:2] f2e2d2c2d4 | 
[V:3] c4A8 | 
[V:4] F,6E,2D,2C,2 | 
[V:1] G4F6E2 | 
[V:2] c4d8 | 
[V:3] G4A8 | 
[V:4] E,4D,8 | 
[V:1] E6D2D2C2 | 
[V:2] e4A6G2 | 
[V:3] E4F8 | 
[V:4] C,4D,4z4 | 
[V:1] E12- | 
[V:2] A4c4B4- | 
[V:3] E12- | 
[V:4] A,,8G,,4 | 
[V:1] E12 |]  
[V:2] B12 |]  
[V:3] E12 |]  
[V:4] E,,12 |]  



